X:3292
T:Concert Reel, The
R:reel
D:Mary Bergin: Feadoga Stain.
Z:id:hn-reel-136
M:C|
K:Ador
BAGB AE~E2|GABG ~A3B|dBAB ~G3B|d2eB dBAB|
BAGB AE~E2|GABG A2 (3B^cd|e2ab gedB|GBdB BA~A2:|
|:ea~a2 ea~a2|~e3f gedB|dg~g2 a2ga|bgab gedg|
ea~a2 ea~a2|~e3f gedB|~g3e d2 (3gfe|dBGA BA~A2:|


